src/assets/images/icons/database.svg

<svg width="24" height="24" viewBox="0 0 24 24" fill="none" xmlns="http://www.w3.org/2000/svg">
<path d="M21 5C21 6.65685 16.9706 8 12 8C7.02944 8 3 6.65685 3 5M21 5C21 3.34315 16.9706 2 12 2C7.02944 2 3 3.34315 3 5M21 5V19C21 20.66 17 22 12 22C7 22 3 20.66 3 19V5M21 12C21 13.66 17 15 12 15C7 15 3 13.66 3 12" stroke="#181D27" stroke-width="2" stroke-linecap="round" stroke-linejoin="round"/>
</svg>

<svg xmlns="http://www.w3.org/2000/svg" fill="none" viewBox="0 0 24 24"><path stroke="#181D27" stroke-linecap="round" stroke-linejoin="round" stroke-width="2" d="M21 5c0 1.657-4.03 3-9 3S3 6.657 3 5m18 0c0-1.657-4.03-3-9-3S3 3.343 3 5m18 0v14c0 1.66-4 3-9 3s-9-1.34-9-3V5m18 7c0 1.66-4 3-9 3s-9-1.34-9-3"/></svg>
